; generated by PrusaSlicer 2.3.1+x64 on 2023-04-11 at 22:36:42 UTC

; 

; external perimeters extrusion width = 0.45mm
; perimeters extrusion width = 0.45mm
; infill extrusion width = 0.45mm
; solid infill extrusion width = 0.45mm
; top infill extrusion width = 0.40mm
; first layer extrusion width = 0.42mm

M73 P0 R75
M73 Q0 S76
M201 X1000 Y1000 Z200 E5000 ; sets maximum accelerations, mm/sec^2
M203 X200 Y200 Z12 E120 ; sets maximum feedrates, mm/sec
M204 P1250 R1250 T1250 ; sets acceleration (P, T) and retract acceleration (R), mm/sec^2
M205 X8.00 Y8.00 Z0.40 E4.50 ; sets the jerk limits, mm/sec
M205 S0 T0 ; sets the minimum extruding and travel feed rate, mm/sec
M107
;TYPE:Custom
M862.3 P "MK3" ; printer model check
M862.1 P0.4 ; nozzle diameter check
M115 U3.9.3 ; tell printer latest fw version
G90 ; use absolute coordinates
M83 ; extruder relative mode
M104 S120 ; set extruder temp
M140 S85 ; set bed temp
M190 S85 ; wait for bed temp
M104 S200 ; set extruder temp
M109 S200 ; wait for extruder temp
G28 W ; home all without mesh bed level
G80 ; mesh bed leveling
G1 Y-3.0 F1000.0 ; go outside print area
G92 E0.0
G1 X60.0 E9.0 F1000.0 ; intro line
M73 Q0 S75
G1 X100.0 E12.5 F1000.0 ; intro line
G92 E0.0
M221 S95

; Don't change E values below. Excessive value can damage the printer.

M907 E538 ; set extruder motor current
G21 ; set units to millimeters
G90 ; use absolute coordinates
M83 ; use relative distances for extrusion
M900 K0.08 ; Filament gcode LA 1.5
M900 K45 ; Filament gcode LA 1.0
;LAYER_CHANGE
;Z:0.2
;HEIGHT:0.2
;BEFORE_LAYER_CHANGE
G92 E0.0
;0.2


G1 E-1.40000 F2100.000
G1 Z0.200 F10800.000
;AFTER_LAYER_CHANGE
;0.2
G1 Z0.400
G1 X91.225 Y38.869
G1 Z0.200
G1 E1.40000 F2100.000
M204 S1000
;TYPE:Skirt
;WIDTH:0.42
G1 F1200.000
G1 X91.722 Y38.446 E0.02048
G1 X92.312 Y38.175 E0.02036
G1 X92.953 Y38.073 E0.02036
G1 X157.004 Y38.073 E2.00826
G1 X157.906 Y38.252 E0.02884
G1 X158.670 Y38.758 E0.02872
G1 X159.185 Y39.515 E0.02872
G1 X159.377 Y40.411 E0.02872
G1 X159.377 Y169.554 E4.04919
G1 X159.316 Y170.086 E0.01680
G1 X159.137 Y170.591 E0.01680
G1 X158.773 Y171.134 E0.02048
G1 X158.275 Y171.556 E0.02048
G1 X157.684 Y171.826 E0.02036
G1 X157.039 Y171.927 E0.02048
G1 X92.992 Y171.927 E2.00814
G1 X92.464 Y171.866 E0.01668
G1 X91.959 Y171.687 E0.01680
G1 X91.414 Y171.320 E0.02060
G1 X90.990 Y170.818 E0.02060
G1 X90.719 Y170.220 E0.02060
G1 X90.623 Y169.570 E0.02060
G1 X90.623 Y40.446 E4.04859
G1 X90.684 Y39.914 E0.01680
G1 X90.863 Y39.409 E0.01680
G1 X91.191 Y38.919 E0.01848
; printing object Genasun GV-5 Drill Guide v3.stl id:0 copy 0
;WIPE_START
G1 F8640.000
G1 X91.722 Y38.446 E-0.16417
G1 X92.312 Y38.175 E-0.14993
G1 X92.953 Y38.073 E-0.14993
G1 X96.704 Y38.073 E-0.86597
;WIPE_END
G1 E-0.07000 F2100.000
G1 Z0.400 F10800.000
G1 X100.713 Y70.263
G1 Z0.200
G1 E1.40000 F2100.000
;TYPE:Perimeter
G1 F1200.000
G1 X140.287 Y70.263 E1.24082
M73 P0 R74
G1 X140.287 Y153.837 E2.62041
G1 X100.713 Y153.837 E1.24082
G1 X100.713 Y70.323 E2.61853
G1 X101.090 Y70.640 F10800.000
;TYPE:External perimeter
G1 F1200.000
G1 X139.910 Y70.640 E1.21717
G1 X139.910 Y153.460 E2.59676
M73 P1 R74
M73 Q1 S75
G1 X101.090 Y153.460 E1.21717
G1 X101.090 Y70.700 E2.59488
G1 X101.032 Y70.244 F10800.000
;WIPE_START
G1 F8640.000
G1 X106.850 Y70.691 E-1.33000
;WIPE_END
G1 E-0.07000 F2100.000
G1 Z0.400 F10800.000
G1 X101.500 Y64.990
G1 Z0.200
G1 E1.40000 F2100.000
;TYPE:Perimeter
G1 F1200.000
G1 X101.146 Y64.959 E0.01115
G1 X100.802 Y64.867 E0.01115
G1 X100.480 Y64.717 E0.01115
G1 X100.189 Y64.513 E0.01115
G1 X99.937 Y64.261 E0.01115
G1 X99.733 Y63.970 E0.01115
G1 X99.583 Y63.648 E0.01115
G1 X99.491 Y63.304 E0.01115
G1 X99.460 Y62.950 E0.01115
G1 X99.491 Y62.596 E0.01115
G1 X99.583 Y62.252 E0.01115
G1 X99.733 Y61.930 E0.01115
G1 X99.937 Y61.639 E0.01115
G1 X100.189 Y61.387 E0.01115
G1 X100.480 Y61.183 E0.01115
G1 X100.802 Y61.033 E0.01115
G1 X101.146 Y60.941 E0.01115
G1 X101.471 Y60.912 E0.01023
G1 X101.850 Y60.940 E0.01192
G1 X102.198 Y61.033 E0.01129
G1 X102.520 Y61.183 E0.01115
G1 X102.811 Y61.387 E0.01115
G1 X103.063 Y61.639 E0.01115
G1 X103.267 Y61.930 E0.01115
G1 X103.417 Y62.252 E0.01115
G1 X103.509 Y62.596 E0.01115
G1 X103.540 Y62.950 E0.01115
G1 X103.509 Y63.304 E0.01115
G1 X103.417 Y63.648 E0.01115
G1 X103.267 Y63.970 E0.01115
G1 X103.080 Y64.237 E0.01023
G1 X102.815 Y64.510 E0.01192
G1 X102.520 Y64.717 E0.01129
G1 X102.198 Y64.867 E0.01115
G1 X101.854 Y64.959 E0.01115
G1 X101.560 Y64.985 E0.00927
G1 X101.527 Y64.609 F10800.000
;TYPE:External perimeter
G1 F1200.000
G1 X101.211 Y64.586 E0.00992
G1 X100.932 Y64.511 E0.00908
G1 X100.669 Y64.389 E0.00908
G1 X100.432 Y64.223 E0.00908
G1 X100.227 Y64.018 E0.00908
G1 X100.061 Y63.781 E0.00908
G1 X99.939 Y63.518 E0.00908
G1 X99.864 Y63.239 E0.00908
G1 X99.838 Y62.950 E0.00908
G1 X99.864 Y62.661 E0.00908
G1 X99.939 Y62.382 E0.00908
G1 X100.061 Y62.119 E0.00908
G1 X100.227 Y61.882 E0.00908
G1 X100.432 Y61.677 E0.00908
G1 X100.669 Y61.511 E0.00908
G1 X100.932 Y61.389 E0.00908
G1 X101.211 Y61.314 E0.00908
G1 X101.474 Y61.291 E0.00825
G1 X101.787 Y61.313 E0.00985
G1 X102.068 Y61.389 E0.00913
G1 X102.331 Y61.511 E0.00908
G1 X102.568 Y61.677 E0.00908
G1 X102.773 Y61.882 E0.00908
G1 X102.939 Y62.119 E0.00908
G1 X103.061 Y62.382 E0.00908
G1 X103.136 Y62.661 E0.00908
G1 X103.162 Y62.950 E0.00908
G1 X103.136 Y63.239 E0.00908
G1 X103.061 Y63.518 E0.00908
G1 X102.939 Y63.781 E0.00908
G1 X102.788 Y63.996 E0.00825
G1 X102.569 Y64.222 E0.00985
G1 X102.331 Y64.389 E0.00913
G1 X102.068 Y64.511 E0.00908
G1 X101.789 Y64.586 E0.00908
G1 X101.587 Y64.604 E0.00635
G1 X101.372 Y64.885 F10800.000
;WIPE_START
G1 F8640.000
G1 X101.211 Y64.586 E-0.08673
G1 X100.932 Y64.511 E-0.06688
G1 X100.669 Y64.389 E-0.06687
G1 X100.432 Y64.223 E-0.06688
G1 X100.227 Y64.018 E-0.06688
G1 X100.061 Y63.781 E-0.06688
G1 X99.939 Y63.518 E-0.06688
G1 X99.864 Y63.239 E-0.06688
G1 X99.838 Y62.950 E-0.06687
G1 X99.864 Y62.661 E-0.06688
G1 X99.939 Y62.382 E-0.06688
G1 X100.061 Y62.119 E-0.06687
G1 X100.227 Y61.882 E-0.06688
G1 X100.432 Y61.677 E-0.06688
G1 X100.669 Y61.511 E-0.06688
G1 X100.932 Y61.389 E-0.06687
G1 X101.211 Y61.314 E-0.06688
G1 X101.474 Y61.291 E-0.06078
G1 X101.787 Y61.313 E-0.07251
G1 X101.954 Y61.358 E-0.03995
;WIPE_END
G1 E-0.07000 F2100.000
G1 Z0.400 F10800.000
G1 X137.460 Y62.950
G1 Z0.200
G1 E1.40000 F2100.000
;TYPE:Perimeter
G1 F1200.000
G1 X137.491 Y62.596 E0.01115
G1 X137.583 Y62.252 E0.01115
G1 X137.733 Y61.930 E0.01115
G1 X137.937 Y61.639 E0.01115
G1 X138.189 Y61.387 E0.01115
G1 X138.480 Y61.183 E0.01115
G1 X138.802 Y61.033 E0.01115
G1 X139.146 Y60.941 E0.01115
G1 X139.471 Y60.912 E0.01023
G1 X139.850 Y60.940 E0.01192
G1 X140.198 Y61.033 E0.01129
G1 X140.520 Y61.183 E0.01115
G1 X140.811 Y61.387 E0.01115
G1 X141.063 Y61.639 E0.01115
G1 X141.267 Y61.930 E0.01115
G1 X141.417 Y62.252 E0.01115
G1 X141.509 Y62.596 E0.01115
G1 X141.540 Y62.950 E0.01115
G1 X141.509 Y63.304 E0.01115
G1 X141.417 Y63.648 E0.01115
G1 X141.279 Y63.943 E0.01023
G1 X141.066 Y64.258 E0.01192
G1 X140.811 Y64.513 E0.01129
G1 X140.520 Y64.717 E0.01115
G1 X140.198 Y64.867 E0.01115
G1 X139.854 Y64.959 E0.01115
G1 X139.500 Y64.990 E0.01115
G1 X139.146 Y64.959 E0.01115
G1 X138.802 Y64.867 E0.01115
G1 X138.480 Y64.717 E0.01115
G1 X138.189 Y64.513 E0.01115
G1 X137.937 Y64.261 E0.01115
G1 X137.733 Y63.970 E0.01115
G1 X137.583 Y63.648 E0.01115
G1 X137.491 Y63.304 E0.01115
G1 X137.465 Y63.010 E0.00927
G1 X137.841 Y62.977 F10800.000
;TYPE:External perimeter
G1 F1200.000
G1 X137.864 Y62.661 E0.00992
G1 X137.939 Y62.382 E0.00908
G1 X138.061 Y62.119 E0.00908
G1 X138.227 Y61.882 E0.00908
G1 X138.432 Y61.677 E0.00908
G1 X138.669 Y61.511 E0.00908
G1 X138.932 Y61.389 E0.00908
G1 X139.211 Y61.314 E0.00908
G1 X139.474 Y61.291 E0.00825
G1 X139.787 Y61.313 E0.00985
G1 X140.068 Y61.389 E0.00913
G1 X140.331 Y61.511 E0.00908
G1 X140.568 Y61.677 E0.00908
G1 X140.773 Y61.882 E0.00908
G1 X140.939 Y62.119 E0.00908
G1 X141.061 Y62.382 E0.00908
G1 X141.136 Y62.661 E0.00908
G1 X141.162 Y62.950 E0.00908
G1 X141.136 Y63.239 E0.00908
G1 X141.061 Y63.518 E0.00908
G1 X140.950 Y63.757 E0.00825
G1 X140.774 Y64.017 E0.00985
G1 X140.568 Y64.223 E0.00913
G1 X140.331 Y64.389 E0.00908
G1 X140.068 Y64.511 E0.00908
G1 X139.789 Y64.586 E0.00908
G1 X139.500 Y64.612 E0.00908
G1 X139.211 Y64.586 E0.00908
G1 X138.932 Y64.511 E0.00908
G1 X138.669 Y64.389 E0.00908
G1 X138.432 Y64.223 E0.00908
G1 X138.227 Y64.018 E0.00908
G1 X138.061 Y63.781 E0.00908
G1 X137.939 Y63.518 E0.00908
G1 X137.864 Y63.239 E0.00908
G1 X137.846 Y63.037 E0.00635
G1 X137.565 Y62.822 F10800.000
;WIPE_START
G1 F8640.000
G1 X137.864 Y62.661 E-0.08673
G1 X137.939 Y62.382 E-0.06688
G1 X138.061 Y62.119 E-0.06687
G1 X138.227 Y61.882 E-0.06688
G1 X138.432 Y61.677 E-0.06688
G1 X138.669 Y61.511 E-0.06688
G1 X138.932 Y61.389 E-0.06687
G1 X139.211 Y61.314 E-0.06688
G1 X139.474 Y61.291 E-0.06078
G1 X139.787 Y61.313 E-0.07251
G1 X140.068 Y61.389 E-0.06726
G1 X140.331 Y61.511 E-0.06688
G1 X140.568 Y61.677 E-0.06688
G1 X140.773 Y61.882 E-0.06688
G1 X140.939 Y62.119 E-0.06688
G1 X141.061 Y62.382 E-0.06687
G1 X141.136 Y62.661 E-0.06688
G1 X141.162 Y62.950 E-0.06688
G1 X141.136 Y63.239 E-0.06688
G1 X141.092 Y63.404 E-0.03957
;WIPE_END
G1 E-0.07000 F2100.000
G1 Z0.400 F10800.000
G1 X144.366 Y52.641
G1 Z0.200
G1 E1.40000 F2100.000
;TYPE:Perimeter
G1 F1200.000
G1 X143.940 Y52.327 E0.01660
G1 X143.559 Y51.959 E0.01660
G1 X143.231 Y51.543 E0.01660
G1 X142.961 Y51.088 E0.01660
G1 X142.754 Y50.600 E0.01660
G1 X142.615 Y50.090 E0.01660
G1 X142.544 Y49.565 E0.01660
G1 X142.544 Y49.035 E0.01660
G1 X142.615 Y48.510 E0.01660
G1 X142.754 Y48.000 E0.01660
G1 X142.961 Y47.512 E0.01660
G1 X143.231 Y47.057 E0.01660
G1 X143.559 Y46.641 E0.01660
G1 X143.940 Y46.273 E0.01660
G1 X144.342 Y45.977 E0.01567
G1 X144.828 Y45.705 E0.01746
G1 X145.325 Y45.514 E0.01667
G1 X145.840 Y45.391 E0.01660
G1 X146.337 Y45.341 E0.01567
G1 X146.894 Y45.356 E0.01746
G1 X147.418 Y45.444 E0.01667
G1 X147.924 Y45.601 E0.01660
G1 X148.377 Y45.811 E0.01567
G1 X148.849 Y46.107 E0.01746
G1 X149.255 Y46.451 E0.01667
G1 X149.590 Y46.821 E0.01567
G1 X149.908 Y47.278 E0.01746
G1 X150.148 Y47.753 E0.01667
G1 X150.322 Y48.253 E0.01660
G1 X150.427 Y48.772 E0.01660
G1 X150.463 Y49.300 E0.01660
G1 X150.427 Y49.828 E0.01660
G1 X150.322 Y50.347 E0.01660
G1 X150.148 Y50.847 E0.01660
G1 X149.909 Y51.320 E0.01660
G1 X149.610 Y51.757 E0.01660
G1 X149.255 Y52.149 E0.01660
G1 X148.850 Y52.491 E0.01660
G1 X148.404 Y52.776 E0.01660
G1 X147.924 Y52.999 E0.01660
G1 X147.418 Y53.156 E0.01660
G1 X146.896 Y53.244 E0.01660
G1 X146.367 Y53.262 E0.01660
G1 X145.840 Y53.209 E0.01660
G1 X145.325 Y53.086 E0.01660
G1 X144.830 Y52.896 E0.01660
G1 X144.419 Y52.670 E0.01472
G1 X144.600 Y52.339 F10800.000
;TYPE:External perimeter
G1 F1200.000
G1 X144.184 Y52.038 E0.01610
G1 X143.839 Y51.705 E0.01502
G1 X143.543 Y51.329 E0.01502
G1 X143.299 Y50.917 E0.01502
G1 X143.111 Y50.476 E0.01502
G1 X142.985 Y50.014 E0.01502
G1 X142.921 Y49.540 E0.01502
G1 X142.921 Y49.060 E0.01502
G1 X142.985 Y48.586 E0.01502
G1 X143.111 Y48.124 E0.01502
G1 X143.299 Y47.683 E0.01502
G1 X143.543 Y47.271 E0.01502
G1 X143.839 Y46.895 E0.01502
G1 X144.184 Y46.562 E0.01502
G1 X144.547 Y46.294 E0.01413
G1 X144.989 Y46.048 E0.01588
G1 X145.437 Y45.875 E0.01504
G1 X145.903 Y45.764 E0.01502
G1 X146.351 Y45.719 E0.01413
G1 X146.857 Y45.732 E0.01588
G1 X147.330 Y45.812 E0.01505
G1 X147.788 Y45.954 E0.01502
G1 X148.197 Y46.143 E0.01413
G1 X148.625 Y46.413 E0.01588
G1 X148.992 Y46.722 E0.01504
G1 X149.294 Y47.057 E0.01413
G1 X149.584 Y47.472 E0.01587
G1 X149.800 Y47.900 E0.01505
G1 X149.958 Y48.353 E0.01502
G1 X150.053 Y48.822 E0.01502
G1 X150.085 Y49.300 E0.01502
G1 X150.053 Y49.778 E0.01502
G1 X149.958 Y50.247 E0.01502
G1 X149.800 Y50.700 E0.01502
G1 X149.584 Y51.127 E0.01502
G1 X149.313 Y51.522 E0.01502
G1 X148.992 Y51.878 E0.01502
G1 X148.626 Y52.187 E0.01502
G1 X148.222 Y52.445 E0.01502
G1 X147.788 Y52.646 E0.01502
G1 X147.330 Y52.788 E0.01502
G1 X146.858 Y52.868 E0.01502
G1 X146.379 Y52.884 E0.01502
G1 X145.903 Y52.836 E0.01502
G1 X145.437 Y52.725 E0.01502
G1 X144.990 Y52.553 E0.01502
G1 X144.653 Y52.368 E0.01205
G1 X144.246 Y52.526 F10800.000
;WIPE_START
G1 F8640.000
G1 X144.184 Y52.038 E-0.13232
G1 X143.839 Y51.705 E-0.11061
G1 X143.543 Y51.329 E-0.11061
G1 X143.299 Y50.917 E-0.11061
G1 X143.111 Y50.476 E-0.11061
G1 X142.985 Y50.014 E-0.11061
G1 X142.921 Y49.540 E-0.11061
G1 X142.921 Y49.060 E-0.11061
G1 X142.985 Y48.586 E-0.11061
G1 X143.111 Y48.124 E-0.11061
G1 X143.299 Y47.683 E-0.11061
G1 X143.501 Y47.341 E-0.09159
;WIPE_END
G1 E-0.07000 F2100.000
G1 Z0.400 F10800.000
G1 X139.471 Y159.112
G1 Z0.200
G1 E1.40000 F2100.000
;TYPE:Perimeter
G1 F1200.000
G1 X139.850 Y159.140 E0.01192
G1 X140.198 Y159.233 E0.01129
G1 X140.520 Y159.383 E0.01115
G1 X140.811 Y159.587 E0.01115
G1 X141.063 Y159.839 E0.01115
G1 X141.267 Y160.130 E0.01115
G1 X141.417 Y160.452 E0.01115
G1 X141.509 Y160.796 E0.01115
G1 X141.540 Y161.150 E0.01115
G1 X141.509 Y161.504 E0.01115
G1 X141.417 Y161.848 E0.01115
G1 X141.267 Y162.170 E0.01115
G1 X141.063 Y162.461 E0.01115
G1 X140.811 Y162.713 E0.01115
G1 X140.520 Y162.917 E0.01115
G1 X140.198 Y163.067 E0.01115
G1 X139.854 Y163.159 E0.01115
G1 X139.500 Y163.190 E0.01115
G1 X139.146 Y163.159 E0.01115
G1 X138.802 Y163.067 E0.01115
G1 X138.480 Y162.917 E0.01115
G1 X138.189 Y162.713 E0.01115
G1 X137.937 Y162.461 E0.01115
G1 X137.733 Y162.170 E0.01115
G1 X137.583 Y161.848 E0.01115
G1 X137.491 Y161.504 E0.01115
G1 X137.460 Y161.150 E0.01115
G1 X137.491 Y160.796 E0.01115
G1 X137.583 Y160.452 E0.01115
G1 X137.733 Y160.130 E0.01115
G1 X137.937 Y159.839 E0.01115
G1 X138.189 Y159.587 E0.01115
G1 X138.480 Y159.383 E0.01115
G1 X138.802 Y159.233 E0.01115
G1 X139.146 Y159.141 E0.01115
G1 X139.411 Y159.118 E0.00835
G1 X139.787 Y159.513 F10800.000
;TYPE:External perimeter
G1 F1200.000
G1 X140.068 Y159.589 E0.00913
G1 X140.331 Y159.711 E0.00908
G1 X140.568 Y159.877 E0.00908
G1 X140.773 Y160.082 E0.00908
G1 X140.939 Y160.319 E0.00908
G1 X141.061 Y160.582 E0.00908
G1 X141.136 Y160.861 E0.00908
G1 X141.162 Y161.150 E0.00908
G1 X141.136 Y161.439 E0.00908
G1 X141.061 Y161.718 E0.00908
G1 X140.939 Y161.981 E0.00908
G1 X140.773 Y162.218 E0.00908
G1 X140.568 Y162.423 E0.00908
G1 X140.331 Y162.589 E0.00908
G1 X140.068 Y162.711 E0.00908
G1 X139.789 Y162.786 E0.00908
G1 X139.500 Y162.812 E0.00908
G1 X139.211 Y162.786 E0.00908
G1 X138.932 Y162.711 E0.00908
G1 X138.669 Y162.589 E0.00908
G1 X138.432 Y162.423 E0.00908
G1 X138.227 Y162.218 E0.00908
G1 X138.061 Y161.981 E0.00908
G1 X137.939 Y161.718 E0.00908
G1 X137.864 Y161.439 E0.00908
G1 X137.838 Y161.150 E0.00908
G1 X137.864 Y160.861 E0.00908
G1 X137.939 Y160.582 E0.00908
G1 X138.061 Y160.319 E0.00908
G1 X138.227 Y160.082 E0.00908
G1 X138.432 Y159.877 E0.00908
G1 X138.669 Y159.711 E0.00908
G1 X138.932 Y159.589 E0.00908
G1 X139.211 Y159.514 E0.00908
M73 Q1 S74
G1 X139.474 Y159.491 E0.00825
G1 X139.727 Y159.509 E0.00797
G1 X139.974 Y159.290 F10800.000
;WIPE_START
G1 F8640.000
G1 X140.068 Y159.589 E-0.08090
G1 X140.331 Y159.711 E-0.06688
G1 X140.568 Y159.877 E-0.06688
G1 X140.773 Y160.082 E-0.06688
G1 X140.939 Y160.319 E-0.06687
G1 X141.061 Y160.582 E-0.06688
G1 X141.136 Y160.861 E-0.06688
G1 X141.162 Y161.150 E-0.06688
G1 X141.136 Y161.439 E-0.06688
G1 X141.061 Y161.718 E-0.06688
G1 X140.939 Y161.981 E-0.06688
G1 X140.773 Y162.218 E-0.06688
G1 X140.568 Y162.423 E-0.06688
G1 X140.331 Y162.589 E-0.06688
G1 X140.068 Y162.711 E-0.06688
G1 X139.789 Y162.786 E-0.06688
G1 X139.500 Y162.812 E-0.06688
G1 X139.211 Y162.786 E-0.06688
G1 X138.932 Y162.711 E-0.06688
G1 X138.754 Y162.628 E-0.04532
;WIPE_END
G1 E-0.07000 F2100.000
G1 Z0.400 F10800.000
G1 X103.540 Y161.150
G1 Z0.200
G1 E1.40000 F2100.000
;TYPE:Perimeter
G1 F1200.000
G1 X103.509 Y161.504 E0.01115
G1 X103.417 Y161.848 E0.01115
G1 X103.267 Y162.170 E0.01115
G1 X103.063 Y162.461 E0.01115
G1 X102.811 Y162.713 E0.01115
G1 X102.520 Y162.917 E0.01115
G1 X102.198 Y163.067 E0.01115
G1 X101.854 Y163.159 E0.01115
G1 X101.500 Y163.190 E0.01115
G1 X101.146 Y163.159 E0.01115
