; generated by PrusaSlicer 2.3.1+x64 on 2023-04-06 at 15:17:33 UTC

; 

; external perimeters extrusion width = 0.45mm
; perimeters extrusion width = 0.45mm
; infill extrusion width = 0.45mm
; solid infill extrusion width = 0.45mm
; top infill extrusion width = 0.40mm
; first layer extrusion width = 0.42mm

M73 P0 R50
M73 Q0 S51
M201 X1000 Y1000 Z200 E5000 ; sets maximum accelerations, mm/sec^2
M203 X200 Y200 Z12 E120 ; sets maximum feedrates, mm/sec
M204 P1250 R1250 T1250 ; sets acceleration (P, T) and retract acceleration (R), mm/sec^2
M205 X8.00 Y8.00 Z0.40 E4.50 ; sets the jerk limits, mm/sec
M205 S0 T0 ; sets the minimum extruding and travel feed rate, mm/sec
M107
;TYPE:Custom
M862.3 P "MK3" ; printer model check
M862.1 P0.4 ; nozzle diameter check
M115 U3.11.0 ; tell printer latest fw version
G90 ; use absolute coordinates
M83 ; extruder relative mode
M104 S240 ; set extruder temp
M140 S85 ; set bed temp
M190 S85 ; wait for bed temp
M109 S240 ; wait for extruder temp
G28 W ; home all without mesh bed level
G80 ; mesh bed leveling
G1 Y-3.0 F1000.0 ; go outside print area
G92 E0.0
G1 X60.0 E9.0 F1000.0 ; intro line
G1 X100.0 E12.5 F1000.0 ; intro line
G92 E0.0
M221 S95

; Don't change E values below. Excessive value can damage the printer.

M907 E538 ; set extruder motor current
G21 ; set units to millimeters
G90 ; use absolute coordinates
M83 ; use relative distances for extrusion
M900 K0.08 ; Filament gcode LA 1.5
M900 K45 ; Filament gcode LA 1.0
;LAYER_CHANGE
;Z:0.2
;HEIGHT:0.2
;BEFORE_LAYER_CHANGE
G92 E0.0
;0.2


G1 E-1.00000 F2100.000
G1 Z0.200 F10800.000
;AFTER_LAYER_CHANGE
;0.2
G1 Z0.400
G1 X79.069 Y84.813
G1 Z0.200
G1 E1.00000 F2100.000
M204 S1000
;TYPE:Skirt
;WIDTH:0.42
G1 F1200.000
G1 X79.995 Y84.623 E0.02966
G1 X170.004 Y84.623 E2.82216
G1 X170.899 Y84.799 E0.02860
G1 X171.662 Y85.300 E0.02860
G1 X172.179 Y86.051 E0.02860
G1 X172.376 Y86.946 E0.02872
G1 X172.375 Y123.091 E1.13333
G1 X172.256 Y123.749 E0.02095
G1 X171.959 Y124.347 E0.02095
G1 X171.503 Y124.841 E0.02107
G1 X170.931 Y125.187 E0.02095
G1 X170.005 Y125.377 E0.02966
G1 X79.970 Y125.377 E2.82300
G1 X79.295 Y125.270 E0.02142
G1 X78.678 Y124.976 E0.02142
G1 X78.171 Y124.518 E0.02142
G1 X77.813 Y123.931 E0.02154
G1 X77.623 Y123.013 E0.02942
G1 X77.624 Y86.924 E1.13154
G1 X77.740 Y86.262 E0.02107
G1 X78.039 Y85.656 E0.02119
G1 X78.494 Y85.161 E0.02107
G1 X79.017 Y84.844 E0.01919
; printing object Solar Panel Drill Guide.stl id:0 copy 0
;WIPE_START
G1 F8640.000
G1 X79.995 Y84.623 E-0.23151
G1 X83.107 Y84.623 E-0.71849
;WIPE_END
G1 E-0.05000 F2100.000
G1 Z0.400 F10800.000
G1 X146.642 Y103.619
G1 Z0.200
G1 E1.00000 F2100.000
;TYPE:Perimeter
G1 F1200.000
G1 X146.799 Y103.180 E0.01464
G1 X146.999 Y102.758 E0.01464
G1 X147.239 Y102.357 E0.01464
G1 X147.517 Y101.982 E0.01464
G1 X147.830 Y101.636 E0.01464
G1 X148.176 Y101.323 E0.01464
G1 X148.551 Y101.045 E0.01464
G1 X148.951 Y100.805 E0.01464
G1 X149.373 Y100.605 E0.01464
G1 X149.813 Y100.448 E0.01464
G1 X150.266 Y100.335 E0.01464
G1 X150.728 Y100.266 E0.01464
G1 X151.169 Y100.244 E0.01387
G1 X151.658 Y100.266 E0.01535
G1 X152.122 Y100.335 E0.01468
G1 X152.575 Y100.448 E0.01464
G1 X153.014 Y100.605 E0.01464
G1 X153.436 Y100.805 E0.01464
G1 X153.836 Y101.045 E0.01464
G1 X154.211 Y101.323 E0.01464
G1 X154.557 Y101.636 E0.01464
G1 X154.871 Y101.982 E0.01464
G1 X155.149 Y102.357 E0.01464
G1 X155.389 Y102.758 E0.01464
G1 X155.588 Y103.180 E0.01464
G1 X155.746 Y103.619 E0.01464
G1 X155.859 Y104.072 E0.01464
G1 X155.928 Y104.534 E0.01464
G1 X155.951 Y105.000 E0.01464
G1 X155.928 Y105.466 E0.01464
G1 X155.859 Y105.928 E0.01464
G1 X155.746 Y106.381 E0.01464
G1 X155.588 Y106.820 E0.01464
G1 X155.389 Y107.242 E0.01464
G1 X155.149 Y107.643 E0.01464
G1 X154.871 Y108.018 E0.01464
G1 X154.557 Y108.364 E0.01464
G1 X154.211 Y108.677 E0.01464
G1 X153.836 Y108.955 E0.01464
G1 X153.436 Y109.195 E0.01464
G1 X153.014 Y109.395 E0.01464
G1 X152.575 Y109.552 E0.01464
G1 X152.122 Y109.665 E0.01464
G1 X151.660 Y109.734 E0.01464
G1 X151.194 Y109.757 E0.01464
G1 X150.728 Y109.734 E0.01464
G1 X150.266 Y109.665 E0.01464
G1 X149.813 Y109.552 E0.01464
G1 X149.373 Y109.395 E0.01464
G1 X148.951 Y109.195 E0.01464
G1 X148.551 Y108.955 E0.01464
G1 X148.176 Y108.677 E0.01464
G1 X147.830 Y108.364 E0.01464
G1 X147.517 Y108.018 E0.01464
G1 X147.239 Y107.643 E0.01464
G1 X146.999 Y107.242 E0.01464
G1 X146.799 Y106.820 E0.01464
G1 X146.642 Y106.381 E0.01464
G1 X146.528 Y105.928 E0.01464
G1 X146.460 Y105.466 E0.01464
G1 X146.437 Y105.000 E0.01464
G1 X146.460 Y104.534 E0.01464
G1 X146.528 Y104.072 E0.01464
G1 X146.627 Y103.677 E0.01276
G1 X146.993 Y103.769 F10800.000
;TYPE:External perimeter
G1 F1200.000
G1 X147.148 Y103.324 E0.01477
G1 X147.332 Y102.936 E0.01347
G1 X147.553 Y102.567 E0.01347
G1 X147.809 Y102.222 E0.01347
G1 X148.097 Y101.903 E0.01347
G1 X148.416 Y101.615 E0.01347
G1 X148.761 Y101.359 E0.01347
G1 X149.129 Y101.138 E0.01347
G1 X149.518 Y100.954 E0.01347
G1 X149.923 Y100.809 E0.01347
G1 X150.339 Y100.705 E0.01347
G1 X150.765 Y100.642 E0.01347
G1 X151.170 Y100.622 E0.01274
G1 X151.622 Y100.642 E0.01419
G1 X152.048 Y100.705 E0.01349
G1 X152.465 Y100.809 E0.01347
G1 X152.870 Y100.954 E0.01347
G1 X153.258 Y101.138 E0.01347
G1 X153.627 Y101.359 E0.01347
G1 X153.972 Y101.615 E0.01347
G1 X154.290 Y101.903 E0.01347
G1 X154.579 Y102.222 E0.01347
G1 X154.835 Y102.567 E0.01347
G1 X155.056 Y102.936 E0.01347
G1 X155.240 Y103.324 E0.01347
G1 X155.384 Y103.729 E0.01347
G1 X155.489 Y104.146 E0.01347
G1 X155.552 Y104.571 E0.01347
G1 X155.573 Y105.000 E0.01347
G1 X155.552 Y105.429 E0.01347
G1 X155.489 Y105.854 E0.01347
G1 X155.384 Y106.271 E0.01347
G1 X155.240 Y106.676 E0.01347
G1 X155.056 Y107.064 E0.01347
G1 X154.835 Y107.433 E0.01347
G1 X154.579 Y107.778 E0.01347
G1 X154.290 Y108.097 E0.01347
G1 X153.972 Y108.385 E0.01347
G1 X153.627 Y108.641 E0.01347
G1 X153.258 Y108.862 E0.01347
G1 X152.870 Y109.046 E0.01347
G1 X152.465 Y109.191 E0.01347
G1 X152.048 Y109.295 E0.01347
G1 X151.623 Y109.358 E0.01347
G1 X151.194 Y109.379 E0.01347
G1 X150.765 Y109.358 E0.01347
G1 X150.339 Y109.295 E0.01347
G1 X149.923 Y109.191 E0.01347
G1 X149.518 Y109.046 E0.01347
G1 X149.129 Y108.862 E0.01347
G1 X148.761 Y108.641 E0.01347
G1 X148.416 Y108.385 E0.01347
G1 X148.097 Y108.097 E0.01347
G1 X147.809 Y107.778 E0.01347
G1 X147.553 Y107.433 E0.01347
G1 X147.332 Y107.064 E0.01347
G1 X147.148 Y106.676 E0.01347
G1 X147.003 Y106.271 E0.01347
G1 X146.899 Y105.854 E0.01347
G1 X146.836 Y105.429 E0.01347
G1 X146.815 Y105.000 E0.01347
G1 X146.836 Y104.571 E0.01347
G1 X146.899 Y104.146 E0.01347
G1 X146.978 Y103.827 E0.01029
G1 X146.718 Y103.479 F10800.000
;WIPE_START
G1 F8640.000
G1 X147.148 Y103.324 E-0.12257
G1 X147.332 Y102.936 E-0.09923
G1 X147.553 Y102.567 E-0.09923
G1 X147.809 Y102.222 E-0.09923
G1 X148.097 Y101.903 E-0.09923
G1 X148.416 Y101.615 E-0.09923
G1 X148.761 Y101.359 E-0.09923
G1 X149.129 Y101.138 E-0.09923
G1 X149.518 Y100.954 E-0.09923
G1 X149.655 Y100.905 E-0.03357
;WIPE_END
G1 E-0.05000 F2100.000
G1 Z0.400 F10800.000
G1 X103.563 Y105.000
G1 Z0.200
G1 E1.00000 F2100.000
;TYPE:Perimeter
G1 F1200.000
G1 X103.540 Y105.466 E0.01464
G1 X103.472 Y105.928 E0.01464
G1 X103.358 Y106.381 E0.01464
G1 X103.201 Y106.820 E0.01464
G1 X103.001 Y107.242 E0.01464
G1 X102.761 Y107.643 E0.01464
G1 X102.483 Y108.018 E0.01464
G1 X102.170 Y108.364 E0.01464
G1 X101.824 Y108.677 E0.01464
G1 X101.449 Y108.955 E0.01464
G1 X101.049 Y109.195 E0.01464
G1 X100.627 Y109.395 E0.01464
G1 X100.187 Y109.552 E0.01464
G1 X99.734 Y109.665 E0.01464
G1 X99.272 Y109.734 E0.01464
G1 X98.806 Y109.757 E0.01464
G1 X98.340 Y109.734 E0.01464
G1 X97.878 Y109.665 E0.01464
G1 X97.425 Y109.552 E0.01464
G1 X96.986 Y109.395 E0.01464
G1 X96.564 Y109.195 E0.01464
G1 X96.164 Y108.955 E0.01464
G1 X95.789 Y108.677 E0.01464
G1 X95.443 Y108.364 E0.01464
G1 X95.129 Y108.018 E0.01464
G1 X94.851 Y107.643 E0.01464
G1 X94.611 Y107.242 E0.01464
G1 X94.412 Y106.820 E0.01464
G1 X94.254 Y106.381 E0.01464
G1 X94.141 Y105.928 E0.01464
G1 X94.072 Y105.466 E0.01464
G1 X94.049 Y105.000 E0.01464
G1 X94.072 Y104.534 E0.01464
G1 X94.141 Y104.072 E0.01464
G1 X94.254 Y103.619 E0.01464
G1 X94.412 Y103.180 E0.01464
G1 X94.611 Y102.758 E0.01464
G1 X94.851 Y102.357 E0.01464
G1 X95.129 Y101.982 E0.01464
G1 X95.443 Y101.636 E0.01464
G1 X95.789 Y101.323 E0.01464
G1 X96.164 Y101.045 E0.01464
G1 X96.564 Y100.805 E0.01464
G1 X96.986 Y100.605 E0.01464
G1 X97.425 Y100.448 E0.01464
G1 X97.878 Y100.335 E0.01464
G1 X98.340 Y100.266 E0.01464
G1 X98.782 Y100.244 E0.01387
G1 X99.271 Y100.266 E0.01535
G1 X99.734 Y100.335 E0.01468
G1 X100.187 Y100.448 E0.01464
G1 X100.627 Y100.605 E0.01464
G1 X101.049 Y100.805 E0.01464
G1 X101.449 Y101.045 E0.01464
G1 X101.824 Y101.323 E0.01464
G1 X102.170 Y101.636 E0.01464
G1 X102.483 Y101.982 E0.01464
G1 X102.761 Y102.357 E0.01464
G1 X103.001 Y102.758 E0.01464
G1 X103.201 Y103.180 E0.01464
G1 X103.358 Y103.619 E0.01464
G1 X103.472 Y104.072 E0.01464
G1 X103.540 Y104.534 E0.01464
G1 X103.560 Y104.940 E0.01276
G1 X103.183 Y104.959 F10800.000
;TYPE:External perimeter
G1 F1200.000
G1 X103.164 Y105.429 E0.01477
G1 X103.101 Y105.854 E0.01347
G1 X102.997 Y106.271 E0.01347
G1 X102.852 Y106.676 E0.01347
G1 X102.668 Y107.064 E0.01347
G1 X102.447 Y107.433 E0.01347
G1 X102.191 Y107.778 E0.01347
G1 X101.903 Y108.097 E0.01347
G1 X101.584 Y108.385 E0.01347
G1 X101.239 Y108.641 E0.01347
G1 X100.871 Y108.862 E0.01347
G1 X100.482 Y109.046 E0.01347
G1 X100.077 Y109.191 E0.01347
G1 X99.661 Y109.295 E0.01347
G1 X99.235 Y109.358 E0.01347
G1 X98.806 Y109.379 E0.01347
G1 X98.377 Y109.358 E0.01347
G1 X97.952 Y109.295 E0.01347
G1 X97.535 Y109.191 E0.01347
G1 X97.130 Y109.046 E0.01347
G1 X96.742 Y108.862 E0.01347
G1 X96.373 Y108.641 E0.01347
G1 X96.028 Y108.385 E0.01347
G1 X95.710 Y108.097 E0.01347
G1 X95.421 Y107.778 E0.01347
G1 X95.165 Y107.433 E0.01347
G1 X94.944 Y107.064 E0.01347
G1 X94.760 Y106.676 E0.01347
G1 X94.616 Y106.271 E0.01347
G1 X94.511 Y105.854 E0.01347
G1 X94.448 Y105.429 E0.01347
G1 X94.427 Y105.000 E0.01347
G1 X94.448 Y104.571 E0.01347
G1 X94.511 Y104.146 E0.01347
G1 X94.616 Y103.729 E0.01347
G1 X94.760 Y103.324 E0.01347
G1 X94.944 Y102.936 E0.01347
G1 X95.165 Y102.567 E0.01347
G1 X95.421 Y102.222 E0.01347
G1 X95.710 Y101.903 E0.01347
G1 X96.028 Y101.615 E0.01347
G1 X96.373 Y101.359 E0.01347
G1 X96.742 Y101.138 E0.01347
G1 X97.130 Y100.954 E0.01347
G1 X97.535 Y100.809 E0.01347
G1 X97.952 Y100.705 E0.01347
G1 X98.377 Y100.642 E0.01347
G1 X98.783 Y100.622 E0.01274
G1 X99.235 Y100.642 E0.01419
G1 X99.661 Y100.705 E0.01349
G1 X100.077 Y100.809 E0.01347
G1 X100.482 Y100.954 E0.01347
G1 X100.871 Y101.138 E0.01347
G1 X101.239 Y101.359 E0.01347
G1 X101.584 Y101.615 E0.01347
G1 X101.903 Y101.903 E0.01347
G1 X102.191 Y102.222 E0.01347
G1 X102.447 Y102.567 E0.01347
G1 X102.668 Y102.936 E0.01347
G1 X102.852 Y103.324 E0.01347
G1 X102.997 Y103.729 E0.01347
G1 X103.101 Y104.146 E0.01347
G1 X103.164 Y104.571 E0.01347
G1 X103.181 Y104.899 E0.01029
G1 X103.531 Y105.156 F10800.000
;WIPE_START
G1 F8640.000
G1 X103.164 Y105.429 E-0.12257
G1 X103.101 Y105.854 E-0.09923
G1 X102.997 Y106.271 E-0.09923
G1 X102.852 Y106.676 E-0.09923
G1 X102.668 Y107.064 E-0.09923
G1 X102.447 Y107.433 E-0.09923
G1 X102.191 Y107.778 E-0.09923
G1 X101.903 Y108.097 E-0.09923
G1 X101.584 Y108.385 E-0.09923
G1 X101.468 Y108.472 E-0.03357
;WIPE_END
G1 E-0.05000 F2100.000
G1 Z0.400 F10800.000
G1 X80.787 Y87.787
G1 Z0.200
G1 E1.00000 F2100.000
;TYPE:Perimeter
G1 F1200.000
G1 X169.213 Y87.787 E2.77253
M73 P1 R50
M73 Q1 S50
G1 X169.213 Y122.213 E1.07940
G1 X80.787 Y122.213 E2.77253
G1 X80.787 Y87.847 E1.07752
G1 X80.410 Y87.410 F10800.000
;TYPE:External perimeter
G1 F1200.000
G1 X169.590 Y87.410 E2.79618
G1 X169.590 Y122.590 E1.10304
G1 X80.410 Y122.590 E2.79618
G1 X80.410 Y87.470 E1.10116
G1 X80.807 Y87.460 F10800.000
;WIPE_START
G1 F8640.000
G1 X84.524 Y87.467 E-0.95000
;WIPE_END
G1 E-0.05000 F2100.000
G1 Z0.400 F10800.000
G1 X169.100 Y88.665
G1 Z0.200
G1 E1.00000 F2100.000
;TYPE:Solid infill
;WIDTH:0.421097
G1 F1200.000
G1 X168.505 Y88.070 E0.02646
G1 X167.970 Y88.070 E0.01682
G1 X168.930 Y89.030 E0.04269
G1 X168.930 Y89.565 E0.01682
G1 X167.435 Y88.070 E0.06648
G1 X166.900 Y88.070 E0.01682
G1 X168.930 Y90.100 E0.09026
G1 X168.930 Y90.634 E0.01682
G1 X166.366 Y88.070 E0.11405
G1 X165.831 Y88.070 E0.01682
G1 X168.930 Y91.169 E0.13783
G1 X168.930 Y91.704 E0.01682
G1 X165.296 Y88.070 E0.16161
G1 X164.761 Y88.070 E0.01682
G1 X168.930 Y92.239 E0.18540
G1 X168.930 Y92.774 E0.01682
G1 X164.226 Y88.070 E0.20918
G1 X163.691 Y88.070 E0.01682
G1 X168.930 Y93.309 E0.23297
M73 P1 R49
G1 X168.930 Y93.843 E0.01682
G1 X163.157 Y88.070 E0.25675
G1 X162.622 Y88.070 E0.01682
G1 X168.930 Y94.378 E0.28053
G1 X168.930 Y94.913 E0.01682
G1 X162.087 Y88.070 E0.30432
G1 X161.552 Y88.070 E0.01682
G1 X168.930 Y95.448 E0.32810
G1 X168.930 Y95.983 E0.01682
G1 X161.017 Y88.070 E0.35189
G1 X160.483 Y88.070 E0.01682
G1 X168.930 Y96.517 E0.37567
G1 X168.930 Y97.052 E0.01682
G1 X159.948 Y88.070 E0.39945
M73 Q2 S50
G1 X159.413 Y88.070 E0.01682
G1 X168.930 Y97.587 E0.42324
M73 P2 R49
G1 X168.930 Y98.122 E0.01682
G1 X158.878 Y88.070 E0.44702
G1 X158.343 Y88.070 E0.01682
G1 X168.930 Y98.657 E0.47081
G1 X168.930 Y99.192 E0.01682
G1 X157.808 Y88.070 E0.49459
G1 X157.274 Y88.070 E0.01682
G1 X168.930 Y99.726 E0.51837
G1 X168.930 Y100.261 E0.01682
G1 X156.739 Y88.070 E0.54216
G1 X156.204 Y88.070 E0.01682
G1 X168.930 Y100.796 E0.56594
G1 X168.930 Y101.331 E0.01682
G1 X155.669 Y88.070 E0.58973
G1 X155.134 Y88.070 E0.01682
G1 X168.930 Y101.866 E0.61351
G1 X168.930 Y102.401 E0.01682
G1 X154.599 Y88.070 E0.63729
G1 X154.065 Y88.070 E0.01682
G1 X168.930 Y102.935 E0.66108
G1 X168.930 Y103.470 E0.01682
G1 X153.530 Y88.070 E0.68486
G1 X152.995 Y88.070 E0.01682
G1 X168.930 Y104.005 E0.70865
G1 X168.930 Y104.540 E0.01682
G1 X152.460 Y88.070 E0.73243
G1 X151.925 Y88.070 E0.01682
G1 X168.930 Y105.075 E0.75621
G1 X168.930 Y105.609 E0.01682
G1 X151.391 Y88.070 E0.78000
G1 X150.856 Y88.070 E0.01682
G1 X168.930 Y106.144 E0.80378
G1 X168.930 Y106.679 E0.01682
G1 X150.321 Y88.070 E0.82756
G1 X149.786 Y88.070 E0.01682
G1 X168.930 Y107.214 E0.85135
G1 X168.930 Y107.749 E0.01682
G1 X149.251 Y88.070 E0.87513
G1 X148.716 Y88.070 E0.01682
G1 X168.930 Y108.284 E0.89892
G1 X168.930 Y108.818 E0.01682
G1 X148.182 Y88.070 E0.92270
G1 X147.647 Y88.070 E0.01682
G1 X168.930 Y109.353 E0.94648
G1 X168.930 Y109.888 E0.01682
G1 X147.112 Y88.070 E0.97027
G1 X146.577 Y88.070 E0.01682
G1 X168.930 Y110.423 E0.99405
G1 X168.930 Y110.958 E0.01682
G1 X146.042 Y88.070 E1.01784
M73 P3 R49
M73 Q3 S50
G1 X145.508 Y88.070 E0.01682
G1 X168.930 Y111.492 E1.04162
M73 Q3 S49
G1 X168.930 Y112.027 E0.01682
G1 X144.973 Y88.070 E1.06540
G1 X144.438 Y88.070 E0.01682
G1 X168.930 Y112.562 E1.08919
G1 X168.930 Y113.097 E0.01682
G1 X143.903 Y88.070 E1.11297
G1 X143.368 Y88.070 E0.01682
G1 X168.930 Y113.632 E1.13676
G1 X168.930 Y114.167 E0.01682
G1 X142.833 Y88.070 E1.16054
G1 X142.299 Y88.070 E0.01682
G1 X168.930 Y114.701 E1.18432
G1 X168.930 Y115.236 E0.01682
G1 X141.764 Y88.070 E1.20811
G1 X141.229 Y88.070 E0.01682
G1 X168.930 Y115.771 E1.23189
G1 X168.930 Y116.306 E0.01682
G1 X155.936 Y103.312 E0.57785
G1 X156.017 Y103.537 E0.00752
G1 X156.142 Y104.053 E0.01669
G1 X168.930 Y116.841 E0.56869
G1 X168.930 Y117.376 E0.01682
G1 X156.217 Y104.663 E0.56536
G1 X156.224 Y105.204 E0.01703
G1 X168.930 Y117.910 E0.56507
G1 X168.930 Y118.445 E0.01682
G1 X156.180 Y105.695 E0.56702
G1 X156.096 Y106.146 E0.01443
G1 X168.930 Y118.980 E0.57074
G1 X168.930 Y119.515 E0.01682
G1 X155.980 Y106.565 E0.57589
G1 X155.837 Y106.956 E0.01311
G1 X168.930 Y120.050 E0.58226
G1 X168.930 Y120.584 E0.01682
G1 X155.665 Y107.320 E0.58990
M73 P3 R48
G1 X155.469 Y107.658 E0.01231
G1 X168.930 Y121.119 E0.59862
G1 X168.930 Y121.654 E0.01682
G1 X155.253 Y107.977 E0.60823
G1 X155.018 Y108.277 E0.01198
G1 X168.671 Y121.930 E0.60718
G1 X168.136 Y121.930 E0.01682
G1 X154.763 Y108.557 E0.59471
G1 X154.484 Y108.812 E0.01191
G1 X167.602 Y121.930 E0.58337
M73 P4 R48
G1 X167.067 Y121.930 E0.01682
